images/eco-chat.svg

<svg xmlns:dc="http://purl.org/dc/elements/1.1/" xmlns:cc="http://creativecommons.org/ns#" xmlns:rdf="http://www.w3.org/1999/02/22-rdf-syntax-ns#" xmlns:svg="http://www.w3.org/2000/svg" xmlns="http://www.w3.org/2000/svg" xmlns:sodipodi="http://sodipodi.sourceforge.net/DTD/sodipodi-0.dtd" xmlns:inkscape="http://www.inkscape.org/namespaces/inkscape" viewBox="0 0 100 100" version="1.1" x="0px" y="0px"><g transform="translate(0,-952.36223)"><path style="font-size:medium;font-style:normal;font-variant:normal;font-weight:normal;font-stretch:normal;text-indent:0;text-align:start;text-decoration:none;line-height:normal;letter-spacing:normal;word-spacing:normal;text-transform:none;direction:ltr;block-progression:tb;writing-mode:lr-tb;text-anchor:start;baseline-shift:baseline;opacity:1;color:#000000;fill:#000000;fill-opacity:1;stroke:none;stroke-width:6;marker:none;visibility:visible;display:inline;overflow:visible;enable-background:accumulate;font-family:Sans;-inkscape-font-specification:Sans" d="M 16 14 C 9.957893 14 5 18.95789 5 25 L 5 63 C 5 69.0421 9.957893 74 16 74 L 18 74 L 18 83 A 3.0003001 3.0003001 0 0 0 22.8125 85.40625 L 38.03125 74 L 84 74 C 90.042107 74 95 69.0421 95 63 L 95 25 C 95 18.95789 90.042107 14 84 14 L 16 14 z M 16 20 L 84 20 C 86.821877 20 89 22.17812 89 25 L 89 63 C 89 65.8219 86.821877 68 84 68 L 37 68 A 3.0003001 3.0003001 0 0 0 35.1875 68.59375 L 24 77 L 24 71 A 3.0003001 3.0003001 0 0 0 21 68 L 16 68 C 13.178123 68 11 65.8219 11 63 L 11 25 C 11 22.17812 13.178123 20 16 20 z M 68.625 24 A 3.0003001 3.0003001 0 0 0 67.34375 24.46875 C 64.287098 26.48272 59.025015 27.33341 53.53125 28.625 C 48.037485 29.91659 42.013461 31.9338 38.46875 37.59375 C 35.957366 41.603777 36.022001 46.151015 36 52.28125 C 33.384544 53.979894 30.84945 56.161505 28.59375 59.21875 A 3.0003001 3.0003001 0 1 0 33.40625 62.78125 C 35.185769 60.36945 37.141025 58.69635 39.28125 57.3125 C 43.251003 58.809182 47.153204 60.010213 51 60 C 62.65345 60 72 50.408 72 37.3125 L 72 27 A 3.0003001 3.0003001 0 0 0 68.625 24 z M 66 31.71875 L 66 37.3125 C 66 47.7102 59.501512 54 51 54 C 49.824147 54.00503 48.430752 53.797136 46.90625 53.40625 C 51.755087 51.179342 57.174684 48.522212 61.5625 42.625 A 3.0003001 3.0003001 0 0 0 59.25 37.78125 A 3.0003001 3.0003001 0 0 0 56.75 39.03125 C 53.084152 43.95813 48.750264 45.95989 43.75 48.25 C 43.216078 48.494534 42.671852 48.775933 42.125 49.03125 C 42.238985 45.13336 42.522806 42.391472 43.53125 40.78125 C 45.776296 37.19651 49.809473 35.66701 54.90625 34.46875 C 58.448024 33.63608 62.339441 33.04012 66 31.71875 z " transform="translate(0,952.36223)"/></g></svg>

<svg xmlns="http://www.w3.org/2000/svg" viewBox="0 0 100 100"><path style="text-indent:0;text-align:start;line-height:normal;text-transform:none;block-progression:tb;marker:none;-inkscape-font-specification:Sans" d="M16 14C9.958 14 5 18.958 5 25v38c0 6.042 4.958 11 11 11h2v9a3 3 0 0 0 4.813 2.406L38.03 74H84c6.042 0 11-4.958 11-11V25c0-6.042-4.958-11-11-11H16zm0 6h68c2.822 0 5 2.178 5 5v38c0 2.822-2.178 5-5 5H37a3 3 0 0 0-1.813.594L24 77v-6a3 3 0 0 0-3-3h-5c-2.822 0-5-2.178-5-5V25c0-2.822 2.178-5 5-5zm52.625 4a3 3 0 0 0-1.281.469c-3.057 2.014-8.319 2.864-13.813 4.156-5.494 1.292-11.518 3.309-15.062 8.969-2.512 4.01-2.447 8.557-2.469 14.687-2.615 1.699-5.15 3.88-7.406 6.938a3 3 0 1 0 4.812 3.562c1.78-2.412 3.735-4.085 5.875-5.468C43.251 58.809 47.153 60.01 51 60c11.653 0 21-9.592 21-22.688V27a3 3 0 0 0-3.375-3zM66 31.719v5.593C66 47.71 59.502 54 51 54c-1.176.005-2.57-.203-4.094-.594 4.85-2.227 10.269-4.884 14.657-10.781a3 3 0 0 0-2.313-4.844 3 3 0 0 0-2.5 1.25c-3.666 4.927-8 6.929-13 9.219-.534.245-1.078.526-1.625.781.114-3.898.398-6.64 1.406-8.25 2.245-3.584 6.278-5.114 11.375-6.312 3.542-.833 7.433-1.429 11.094-2.75z" font-weight="400" color="#000" overflow="visible" font-family="Sans"/></svg>
